justvector/meetup.svg

<?xml version="1.0" encoding="iso-8859-1"?>
<!-- Generator: Adobe Illustrator 15.0.0, SVG Export Plug-In . SVG Version: 6.00 Build 0)  -->
<!DOCTYPE svg PUBLIC "-//W3C//DTD SVG 1.1//EN" "http://www.w3.org/Graphics/SVG/1.1/DTD/svg11.dtd">
<svg version="1.1" id="Icons" xmlns="http://www.w3.org/2000/svg" xmlns:xlink="http://www.w3.org/1999/xlink" x="0px" y="0px"
	 width="100px" height="100px" viewBox="0 0 100 100" style="enable-background:new 0 0 100 100;" xml:space="preserve">
<path id="Meetup" style="fill-rule:evenodd;clip-rule:evenodd;" d="M46.117,51.323c-0.301,0-0.604-0.024-0.828-0.339
	c0.068-1.191,0.457-2.081,0.835-2.94c0.169-0.387,0.339-0.772,0.477-1.187l0.169-0.489l0.139,0.496
	c0.327,1.151,0.223,3.296-0.283,4.45L46.117,51.323z M83.713,43.804l-0.151,0.141c-2.571,2.424-3.503,6.539-4.175,10.204
	c2.145-0.58,3.968-2.562,4.755-4.742c0.48-1.331,0.811-3.353-0.328-5.422L83.713,43.804z M36.748,50.408
	c0.135,0.053,0.288,0.115,0.501,0.115l0.107-0.022l0.26-0.128c0.202-0.986,0.139-2.263-0.169-3.504
	c-0.791,0.898-1.274,1.946-1.457,3.287l-0.024,0.182l0.402-0.021C36.518,50.316,36.625,50.356,36.748,50.408z M95,73.785
	C95,75.561,93.561,77,91.785,77H8.215C6.439,77,5,75.561,5,73.785v-47.57C5,24.439,6.439,23,8.215,23h83.57
	C93.561,23,95,24.439,95,26.215V73.785z M32.03,56.304c-0.892-2.458-1.47-5.244-2.025-7.972c-0.719-3.505-1.459-7.064-2.716-9.842
	c-0.149,0.014-0.297,0.152-0.439,0.152c-0.444,0-0.831,0.105-1.217,0.043C25.266,38.621,24.898,39,24.464,39
	c-0.04,0-0.084,0-0.124,0c-0.113,0-0.215-0.441-0.264-0.473c-2.004,2.711-2.693,6.371-3.599,10.082
	c-0.501-0.879-0.96-1.781-1.415-2.704c-0.804-1.622-1.635-3.288-2.577-4.623c-0.264-0.022-0.521-0.024-0.767-0.024
	c-1.079,0-2.058,0.194-2.978,0.462l-0.047,2.491c-0.101,4.277-0.187,7.97,0.891,11.457c0.2,0.033,0.404,0.05,0.606,0.05
	c1.292,0,2.435-0.631,2.931-0.884c0.079-1.094-0.057-1.947-0.197-2.854c-0.075-0.464-0.151-0.932,0.095-1.54
	c0.749,0.972,1.408,2.039,2.064,3.104c0.418,0.675,0.836,1.347,1.156,1.927c0.216,0.022,0.42,0.031,0.615,0.031
	c0.505,0,0.951-0.063,1.396-0.123c0.463-0.062,0.921-0.121,1.445-0.121l0.297,0.108c0.594-1.318,0.626-3.257,0.657-5.134
	c0.028-1.722,0.059-3.5,0.824-4.825c0.835,3.848,1.973,7.586,3.472,11.422c0.527-0.072,1.111-0.253,1.651-0.42
	c0.402-0.125,0.766-0.243,1.055-0.243C31.798,56.166,31.926,56.231,32.03,56.304z M42.382,57.11
	c-0.288-0.522-0.703-0.765-1.294-0.765c-0.452,0-0.967,0.128-1.463,0.264c-0.508,0.137-1.029,0.268-1.499,0.268
	c-0.13,0-0.251-0.032-0.371-0.057c-0.565-0.107-1.022-0.461-1.354-0.953c-0.6-0.893-0.747-2.355-0.209-4.137
	C37.059,51.965,38.15,52,39.344,52c0.101,0,0.197,0,0.294,0c0.306,0,0.585,0.098,0.767,0.172c0.587-2.385,0.271-5.636-0.2-7.506
	c-0.364-0.076-0.688-0.209-1.011-0.32c-0.566-0.195-1.096-0.385-1.821-0.385c-0.125,0-0.255-0.006-0.384,0.009
	c-2.297,0.308-3.859,3.53-4.215,6.557c-0.33,2.794,0.272,6.148,2.944,7.179c0.55,0.212,1.234,0.318,2.03,0.318
	C39.337,58.023,41.18,57.578,42.382,57.11z M51.498,56.429c-0.145-0.479-0.56-0.744-1.178-0.936
	c-0.524,0.813-1.34,1.264-2.305,1.264c-1.025,0-2.043-0.521-2.654-1.362c-0.584-0.803-0.727-1.805-0.211-2.925
	c0.828,0.169,1.638,0.323,2.393,0.323c0.627,0,1.191-0.1,1.666-0.154c-0.147-1.835,0.066-3.122,0.292-4.484
	c0.188-1.138,0.383-2.312,0.424-3.733c-1.046-0.791-2.159-1.195-3.4-1.305c-3.063,2.342-4.485,5.931-4.351,10.944
	c0.419,2.217,3.34,3.588,5.809,3.588C49.488,57.648,50.751,57.159,51.498,56.429z M62.109,49.556
	c-0.38-0.305-0.703-0.663-1.026-1.027c-0.611-0.684-1.188-1.33-2.127-1.582c-0.195,0.004-0.233,0.146-0.255,0.579
	c-0.02,0.348-0.048,0.884-0.58,0.884l-0.365,0.004l0.016-0.127c0.13-1.554,0.016-3.344-0.109-5.328
	c-0.172-2.813-0.352-5.444,0.147-7.823C57.191,34.393,56.247,34,54.419,34c-0.024,0-0.046,0-0.068,0
	c-0.151,0-0.288-0.469-0.329-0.551c-0.941,2.895-0.484,6.067-0.042,9.534c0.255,1.978,0.494,3.823,0.202,5.613
	c-0.362,0-0.729-0.045-1.084-0.073c-0.316-0.027-0.628-0.06-0.907-0.06c-0.524,0-0.837,0.091-1.026,0.305
	c-0.213,0.239-0.276,0.648-0.264,1.142c0.722,0.496,1.972,0.53,3.18,0.561l0.761,0.173c0.033,1.057,0.116,2.065,0.197,3.076
	c0.123,1.479,0.244,3.009,0.214,4.676c0.32-0.044,0.608-0.06,0.888-0.077c0.54-0.035,1.052-0.067,1.632-0.136
	c-0.018-1.18-0.062-2.305-0.104-3.388c-0.057-1.513-0.113-2.949,0.019-4.501c0.535-0.153,1.184-0.188,1.81-0.222
	C60.547,50.013,61.633,49.954,62.109,49.556z M73.267,47.677C72.516,47.062,71.584,46,70.522,46c-0.084,0-0.167,0-0.241,0
	c-0.114,0-0.211,0.291-0.264,0.238l-0.026,1.109c-0.071,3.041-0.172,7.254-3.081,8.265c-0.277-1.826-0.352-3.82-0.422-5.604
	c-0.037-0.951-0.072-1.813-0.04-2.416c-0.283-0.136-0.544-0.282-0.8-0.438c-0.723-0.434-1.403-0.839-2.502-0.983
	c-0.438,5.229,0.088,8.692,1.56,10.29c0.606,0.659,1.387,0.996,2.32,0.996c0.655,0,1.399-0.161,2.138-0.423l0.281-0.433
	c0.525-0.804,0.87-1.338,1.655-1.934c0.2-0.358,0.413-0.8,0.63-1.143C72.691,51.982,73.599,50.334,73.267,47.677z M87.31,42.754
	c-1.602-0.938-2.997-1.39-4.27-1.39c-1.584,0-2.957,0.712-4.199,2.181c-2.338,2.76-2.825,8.507-3.161,11.401
	c-0.141,0.06-0.295,0.107-0.451,0.151c-0.406,0.121-0.788,0.235-0.934,0.424c1.229,1.424,1.47,3.839,1.705,6.17
	c0.183,1.8,0.367,3.661,0.895,4.925c0.292,0.063,0.703,0.096,1.255,0.096c0.259,0,0.531-0.008,0.802-0.008
	c0.457,0,0.907,0.02,1.264,0.129c-0.851-2.146-1.183-5.054-0.919-9.303c3.468-0.82,6.551-3.281,8.042-6.423
	C88.239,49.209,88.955,46.207,87.31,42.754z"/>
</svg>

<?xml version="1.0" encoding="UTF-8" standalone="no"?>
<!DOCTYPE svg PUBLIC "-//W3C//DTD SVG 1.1//EN" "http://www.w3.org/Graphics/SVG/1.1/DTD/svg11.dtd">
<svg width="100%" height="100%" viewBox="0 0 100 100" version="1.1" xmlns="http://www.w3.org/2000/svg" xmlns:xlink="http://www.w3.org/1999/xlink" xml:space="preserve" xmlns:serif="http://www.serif.com/" style="fill-rule:evenodd;clip-rule:evenodd;stroke-linejoin:round;stroke-miterlimit:2;">
    <g id="Meetup" transform="matrix(1,0,0,1,-2,0)">
        <path d="M83.713,43.804L83.562,43.945C80.991,46.369 80.059,50.484 79.387,54.149C81.532,53.569 83.355,51.587 84.142,49.407C84.622,48.076 84.953,46.054 83.814,43.985L83.713,43.804ZM95,73.785C95,75.561 93.561,77 91.785,77L71.215,77C69.439,77 68,75.561 68,73.785L68,26.215C68,24.439 69.439,23 71.215,23L91.785,23C93.561,23 95,24.439 95,26.215L95,73.785ZM87.31,42.754C85.708,41.816 84.313,41.364 83.04,41.364C81.456,41.364 80.083,42.076 78.841,43.545C76.503,46.305 76.016,52.052 75.68,54.946C75.539,55.006 75.385,55.053 75.229,55.097C74.823,55.218 74.441,55.332 74.295,55.521C75.524,56.945 75.765,59.36 76,61.691C76.183,63.491 76.367,65.352 76.895,66.616C77.187,66.679 77.598,66.712 78.15,66.712C78.409,66.712 78.681,66.704 78.952,66.704C79.409,66.704 79.859,66.724 80.216,66.833C79.365,64.687 79.033,61.779 79.297,57.53C82.765,56.71 85.848,54.249 87.339,51.107C88.239,49.209 88.955,46.207 87.31,42.754Z"/>
    </g>
    <g id="Meetup1" serif:id="Meetup" transform="matrix(1,0,0,1,-32,0)">
        <path d="M83.713,43.804L83.562,43.945C80.991,46.369 80.059,50.484 79.387,54.149C81.532,53.569 83.355,51.587 84.142,49.407C84.622,48.076 84.953,46.054 83.814,43.985L83.713,43.804ZM95,73.785C95,75.561 93.561,77 91.785,77L71.215,77C69.439,77 68,75.561 68,73.785L68,26.215C68,24.439 69.439,23 71.215,23L91.785,23C93.561,23 95,24.439 95,26.215L95,73.785ZM87.31,42.754C85.708,41.816 84.313,41.364 83.04,41.364C81.456,41.364 80.083,42.076 78.841,43.545C76.503,46.305 76.016,52.052 75.68,54.946C75.539,55.006 75.385,55.053 75.229,55.097C74.823,55.218 74.441,55.332 74.295,55.521C75.524,56.945 75.765,59.36 76,61.691C76.183,63.491 76.367,65.352 76.895,66.616C77.187,66.679 77.598,66.712 78.15,66.712C78.409,66.712 78.681,66.704 78.952,66.704C79.409,66.704 79.859,66.724 80.216,66.833C79.365,64.687 79.033,61.779 79.297,57.53C82.765,56.71 85.848,54.249 87.339,51.107C88.239,49.209 88.955,46.207 87.31,42.754Z"/>
    </g>
    <g id="Meetup2" serif:id="Meetup" transform="matrix(1,0,0,1,-62,0)">
        <path d="M83.713,43.804L83.562,43.945C80.991,46.369 80.059,50.484 79.387,54.149C81.532,53.569 83.355,51.587 84.142,49.407C84.622,48.076 84.953,46.054 83.814,43.985L83.713,43.804ZM95,73.785C95,75.561 93.561,77 91.785,77L71.215,77C69.439,77 68,75.561 68,73.785L68,26.215C68,24.439 69.439,23 71.215,23L91.785,23C93.561,23 95,24.439 95,26.215L95,73.785ZM87.31,42.754C85.708,41.816 84.313,41.364 83.04,41.364C81.456,41.364 80.083,42.076 78.841,43.545C76.503,46.305 76.016,52.052 75.68,54.946C75.539,55.006 75.385,55.053 75.229,55.097C74.823,55.218 74.441,55.332 74.295,55.521C75.524,56.945 75.765,59.36 76,61.691C76.183,63.491 76.367,65.352 76.895,66.616C77.187,66.679 77.598,66.712 78.15,66.712C78.409,66.712 78.681,66.704 78.952,66.704C79.409,66.704 79.859,66.724 80.216,66.833C79.365,64.687 79.033,61.779 79.297,57.53C82.765,56.71 85.848,54.249 87.339,51.107C88.239,49.209 88.955,46.207 87.31,42.754Z"/>
    </g>
</svg>
